X:1
T:The Dark-Eyed Canaller
M:3/2
L:1/4
K:G
 G B B| B3/2- A/2 B G E E| D2 z D G B| d3e/2-d/2 c d| B2 z d d e/2e/2|\
 G3 E/2D/2| A3/2 B/2| c4 z2| B3 A B G| E2 D2 z2| G3 A B c| d4 e G|\
 B3 A G A| G3||
